X: 1
T: The Trumpet
R: hornpipe
M: 4/4
L: 1/8
K: Gmaj
|:(3GGG G2 (3GGG Gd|BGBd gdBG|(3DDD D2 (3DDD DA|FDFA cAFA|
(3GGG G2 (3GGG Gd|BGBd g2ag|fagf egfe|1 d2de dcBA:|2 d2de d2B=c||
|:(3ddd d2 (3ddd d2|efgf edcB|cded cBAG|FGAG FDEF|
(3GGG G2 (3BBB B2|(3ddd d2 g3b|agfe dcBA|1 G2B2 G2Bc :|2 G2B2 G4||


Tune 1408	Setting 14780

